img/data.svg

<svg width="100" height="100" viewBox="0 0 100 100" fill="none" xmlns="http://www.w3.org/2000/svg">
<path d="M79.3903 70.1601C77.1256 70.1597 74.8906 70.6766 72.856 71.6714C70.8214 72.6661 69.0409 74.1125 67.6503 75.9001L67.5703 75.8401L33.5703 56.0501H33.4603C34.2175 54.2349 34.6051 52.2869 34.6003 50.3201C34.6009 48.3505 34.2135 46.4001 33.4603 44.5801H33.5703L67.4903 24.7801L67.6003 24.7001C69.9117 27.6574 73.2603 29.626 76.9684 30.2075C80.6764 30.7889 84.4669 29.9398 87.5725 27.832C90.6781 25.7242 92.8669 22.5152 93.6958 18.8545C94.5246 15.1938 93.9317 11.3549 92.037 8.11493C90.1422 4.87492 87.0872 2.47582 83.4904 1.40328C79.8935 0.330728 76.0235 0.664847 72.6637 2.338C69.3039 4.01115 66.7053 6.89835 65.3939 10.4152C64.0825 13.932 64.1563 17.8157 65.6003 21.2801H65.4803L31.5903 41.0001L31.4803 41.0801C29.5715 38.626 26.9437 36.8294 23.9641 35.9415C20.9845 35.0536 17.8019 35.1187 14.8611 36.1277C11.9203 37.1367 9.36817 39.0393 7.56133 41.5694C5.75448 44.0996 4.7832 47.131 4.7832 50.2401C4.7832 53.3492 5.75448 56.3807 7.56133 58.9109C9.36817 61.441 11.9203 63.3436 14.8611 64.3526C17.8019 65.3616 20.9845 65.4267 23.9641 64.5388C26.9437 63.6509 29.5715 61.8543 31.4803 59.4001L31.5903 59.4801L65.5903 79.2701H65.6703C64.901 81.0893 64.5065 83.045 64.5103 85.0201C64.4985 87.9753 65.3644 90.8674 66.9984 93.3297C68.6323 95.792 70.9607 97.7137 73.6883 98.8509C76.4158 99.9882 79.4196 100.29 82.3189 99.7178C85.2181 99.1456 87.8821 97.7254 89.9732 95.6372C92.0642 93.549 93.488 90.8869 94.064 87.9884C94.6401 85.09 94.3424 82.0857 93.2088 79.3567C92.0752 76.6276 90.1567 74.2966 87.6965 72.6594C85.2364 71.0221 82.3455 70.1523 79.3903 70.1601ZM79.3903 4.54015C81.5501 4.54015 83.6614 5.18059 85.4572 6.3805C87.2529 7.5804 88.6526 9.28587 89.4791 11.2812C90.3056 13.2766 90.5219 15.4723 90.1005 17.5905C89.6792 19.7088 88.6391 21.6546 87.1119 23.1818C85.5847 24.7089 83.639 25.749 81.5207 26.1703C79.4025 26.5917 77.2068 26.3754 75.2114 25.5489C73.2161 24.7224 71.5106 23.3228 70.3107 21.527C69.1108 19.7312 68.4703 17.6199 68.4703 15.4601C68.473 12.5648 69.6243 9.78879 71.6717 7.74146C73.719 5.69414 76.495 4.54279 79.3903 4.54015ZM19.7203 61.1901C17.5601 61.1921 15.4479 60.5534 13.6508 59.3547C11.8537 58.156 10.4525 56.4512 9.62444 54.456C8.7964 52.4608 8.57872 50.2648 8.99894 48.1459C9.41916 46.027 10.4584 44.0803 11.9852 42.5521C13.512 41.0239 15.4577 39.9829 17.5763 39.5607C19.6948 39.1385 21.891 39.3542 23.8869 40.1804C25.8829 41.0066 27.5889 42.4063 28.7893 44.2023C29.9896 45.9983 30.6303 48.1099 30.6303 50.2701C30.6277 53.1638 29.4777 55.9383 27.4326 57.9853C25.3874 60.0323 22.614 61.1848 19.7203 61.1901ZM79.3903 96.0001C77.2306 96.0001 75.1193 95.3597 73.3235 94.1598C71.5277 92.9599 70.1281 91.2544 69.3016 89.259C68.4751 87.2637 68.2588 85.068 68.6802 82.9498C69.1015 80.8315 70.1415 78.8857 71.6687 77.3585C73.1959 75.8313 75.1417 74.7913 77.2599 74.37C79.3782 73.9486 81.5739 74.1649 83.5692 74.9914C85.5646 75.8179 87.2701 77.2175 88.47 79.0133C89.6699 80.8091 90.3103 82.9204 90.3103 85.0801C90.3077 87.9755 89.1563 90.7515 87.109 92.7988C85.0617 94.8462 82.2857 95.9975 79.3903 96.0001Z" fill="#333333"/>
</svg>

<svg width="100" height="100" fill="none" xmlns="http://www.w3.org/2000/svg"><path d="M79.39 70.16a14.87 14.87 0 0 0-11.74 5.74l-.08-.06-34-19.79h-.11a14.79 14.79 0 0 0 1.14-5.73c0-1.97-.386-3.92-1.14-5.74h.11l33.92-19.8.11-.08a14.8 14.8 0 1 0-2-3.42h-.12L31.59 41l-.11.08a14.92 14.92 0 1 0 0 18.32l.11.08 34 19.79h.08a14.69 14.69 0 0 0-1.16 5.75 14.92 14.92 0 1 0 14.88-14.86Zm0-65.62a10.92 10.92 0 1 1-10.92 10.92A10.93 10.93 0 0 1 79.39 4.54ZM19.72 61.19a10.92 10.92 0 1 1 10.91-10.92 10.93 10.93 0 0 1-10.91 10.92ZM79.39 96a10.92 10.92 0 1 1 10.92-10.92A10.93 10.93 0 0 1 79.39 96Z" fill="#333"/></svg>
